!!!ONB: MCCC : IFS0587_03 : Extracted Monophonic Melody
!!!COM: Schubert, Franz
!!!OPR: Piano Sonata in A minor, Grande Sonate
!!!OMV: 3
!!!SCT: D.784 (published as Op.posth.143)
!!!ODT: 1823///
**kern
*staff1
=1
*clefG2
*k[]
*a:
*M3/4
12a
12b
12cc
12b
12cc
12dd
4ee
=2
12a
12b
12cc
12b
12cc
12dd
4ee
=3
12a
12b
12cc
12b
12cc
12dd
12cc
12dd
12ee
=4
12ff
12gg
12aa
12gg
12ff
12ee
12dd
12cc
12b
=5
12a
12b
12cc
12b
12a
12g
12f
12e
12d#
=6
4e
4r
12B
12c#
12d#
=7
12e
12f#
12g#
4a
12B
12c#
12d#
=8
12e
12f#
12g#
4a
12B
12c#
12d#
=9
12e
12f#
12g#
12f#
12g#
12a
12g#
12a
12b
=10
12a
12b
12cc
12b
12cc
12dd
12cc
12dd
12ee
=11
12ff
12ee
12dd
12ff
12ee
12dd
12ff
12ee
12dd
=12
12ff
12ee
12dd
12ff
12ee
12dd
12ff
12ee
12dd
=13
12ff
12ee
12dd
12ff
12ee
12dd
12ff
12ee
12dd
=14
12ff
12ee
12dd
12ee
12dd
12cc
12dd
12cc
12b
=15
12a
12b
12cc
12b
12cc
12dd
4ee
=16
12a
12b
12cc
12b
12cc
12dd
4ee
=17
12a
12b
12cc
12b
12cc
12dd
12cc
12dd
12ee
=18
12ff
12gg
12aa
12gg
12ff
12ee
12dd
12cc
12b
=19
12a
12b
12cc
12b
12a
12g
12f
12e
12d#
=20
12e
12f#
12g
4a
12B
12c#
12d#
=21
12e
12f#
12g
4a
12B
12c#
12d#
=22
12e
12f#
12g
12f#
12g
12a
12g
12a
12b
=23
12a
12b
12cc
12b
12cc
12dd
12cc
12dd
12ee
=24
12f
12b-
12dd
12ff
12bb-
12ddd
12fff
12bbb-
12dddd
=25
4ffff
4ee
4ee
=26
12a
12b
12cc
4dd
12e
12f#
12g#
=27
12a
12b
12cc
4dd
12e
12f#
12g#
=28
12a
12b
12cc
12b
12cc
12dd
12cc
12dd
12ee
=29
12f
12b-
12dd
12ff
12bb-
12ddd
12fff
12bbb-
12dddd
=30
4ffff
4ee
4ee
=31
2.aa
=32
8ee
8dd#
8ee
8dd#
4ee
=33
2.ff
=34
8cc
8b
8cc
8b
4cc
=35
2dd
4cc
=36
4b-
4ff
4ee
=37
4dd
4cc
4b
=38
8a
16b
16cc
16dd
16ee
16ff#
16gg#
16aa
16bb
16ccc
16ddd
=39
8eee
8ddd#
8eee
8ddd#
4eee
=40
8f
16g
16a
16b-
16cc
16dd
16ee
16ff
16gg
16aa
16bb-
=41
8ccc
8bb
8ccc
8bb
4ccc
=42
16b
16cc
16dd
16ee
16ff
16bb
16ddd
16fff
4eee
=43
16b-
16dd
16ff
16bb-
16dd
16ff
16gg#
16ddd
16cc
16ee
16aa
16ccc
=44
16b
16dd
16ff
16bb
16a
16cc
16ee
16aa
16g#
16b
16ee
16gg#
=45
8A
16B
16c
16d
16e
16f#
16g#
16a
16b
16cc
16dd
=46
16ee
16ff
16gg
16aa
4bb-
4r
=47
4r
4gg
4r
=48
4r
4ee
4r
=49
4r
4cc#
4r
=50
*M4/4
4r
4cc
2r
=51
*M3/4
[2a
8a]
16b-
16a
=52
4g
4b-
4cc#
=53
2cc
4a
=54
2cc
4b-
=55
[2a
8a]
16b-
16a
=56
4g
4b-
4cc#
=57
2cc
4a
=58
2cc
4b-
=59
2cc#
4b-
=60
2dd
4b-
=61
4a
4ff#
4ff
=62
2ee-
4dd
=63
4a
4ee-
4dd
=64
2cc
4b-
=65
2cc
4b-
=66
2cc
4a
=67
4cc#
8cc
8b-
8a
8g
=68
4.f
8g
8a
8b-
=69
4a
4ff#
4ff
=70
2ee-
4dd
=71
4a
4ee-
4dd
=72
2cc
4b-
=73
2cc
4b-
=74
2cc
4a
=75
4cc#
8cc
8b-
8a
8g
=76
4f
4r
4r
=77
2.a
=78
2.a
=79
2.g#
=80
12a
12b
12cc
12b
12cc
12dd
4ee
=81
12a
12b
12cc
12b
12cc
12dd
4ee
=82
12a
12b
12cc
12b
12cc
12dd
12cc
12dd
12ee
=83
12ff
12gg
12aa
12gg
12ff
12ee
12dd
12cc
12b
=84
12a
12b
12cc
12b
12a
12g
12f
12e
12d#
=85
4e
4r
12B
12c#
12d#
=86
12e
12f#
12g#
4a
12B
12c#
12d#
=87
12e
12f#
12g#
4a
12B
12c#
12d#
=88
12e
12f#
12g#
12f#
12g#
12a
12g#
12a
12b
=89
12a
12b
12cc
12b
12cc
12dd
12cc
12dd
12ee
=90
12ff
12ee
12dd
12ff
12ee
12dd
12ff
12ee
12dd
=91
12ff
12ee
12dd
12ff
12ee
12dd
12ff
12ee
12dd
=92
12ff
12ee-
12dd
12ff
12ee-
12dd
12ff
12ee-
12dd
=93
12gg#
12gg
12ff
12gg
12ff
12ee-
12ff
12ee-
12dd
=94
12cc
12dd
12ee-
12dd
12ee-
12ff
4gg
=95
12cc
12dd
12ee-
12dd
12ee-
12ff
4gg
=96
12cc
12dd
12ee-
12dd
12ee-
12ff
12ee-
12ff
12gg
=97
12gg#
12bb-
12ccc
12bb-
12gg#
12gg
12ff
12ee-
12dd
=98
12cc
12dd
12ee-
12dd
12cc
12b-
12g#
12g
12f#
=99
4g
4r
12d
12e
12f#
=100
12g
12a
12b
4cc
12d
12e
12f#
=101
12g
12a
12b
4cc
12d
12e
12f#
=102
12g
12a
12b
12a
12b
12cc
12b
12cc
12dd
=103
12cc
12dd
12ee
12dd
12ee
12ff
12ee
12ff
12gg
=104
12c
12f
12a
12cc
12ff
12aa
12ccc
12fff
12aaa
=105
4cccc
4bb
4bb
=106
12ee
12ff#
12gg
4aa
12b
12cc#
12dd#
=107
12ee
12ff#
12gg
4aa
12b
12cc#
12dd#
=108
12ee
12ff#
12gg
12ff#
12gg
12aa
12gg
12aa
12bb
=109
12c
12f
12a
12cc
12ff
12aa
12ccc
12fff
12aaa
=110
4cccc
4bb
4bb
=111
2.eee
=112
8bb
8aa#
8bb
8aa#
4bb
=113
2.ddd
=114
8aa
8gg#
8aa
8gg#
4aa
=115
2ccc
4bb
=116
4aa
4ccc
4bb
=117
4aa
4gg
4ff#
=118
8e
16f#
16g
16a
16b
16cc#
16dd#
16ee
16ff#
16gg
16aa
=119
8bb
8aa#
8bb
8aa#
4bb
=120
8d
16e
16f#
16g
16a
16b
16cc#
16dd
16ee
16ff#
16gg#
=121
8aa
8gg#
8aa
8gg#
4aa
=122
16r
16cc
16ee
16gg
16ccc
16eee
16ggg
16cccc
4bbb
=123
16a
16cc
16ff
16aa
16cc
16ee-
16aa
16ccc
16b
16ee
16gg
16bb
=124
16a
16cc
16ff#
16aa
16g
16b
16ee
16gg
16f#
16b
16ee-
16ff#
=125
8e
16f#
16g
16a
16b
16cc#
16dd#
16ee
16ff#
16gg
16aa
=126
16bb
16ccc
16ddd
16eee
4fff
4r
=127
4r
4ddd
4r
=128
4r
4bb
4r
=129
4r
4gg#
4r
=130
*M4/4
4r
4gg
2r
=131
*M3/4
2ee[
8ee]
16ff
16ee
=132
4dd
4ff
4gg#
=133
2gg
4ee
=134
2gg
4ff
=135
2ee[
8ee]
16ff
16ee
=136
4dd
4ff
4gg#
=137
2gg
4ee
=138
2gg
4ff
=139
2gg#
4ff
=140
2aa
4ff
=141
4ee
4ccc#
4ccc
=142
2bb-
4aa
=143
4ee
4bb-
4aa
=144
2gg
4ff
=145
2gg
4ff
=146
2gg
4ee
=147
4gg#
8gg
8ff
8ee
8dd
=148
4.cc
8dd
8ee
8ff
=149
4ee
4ccc#
4ccc
=150
2bb-
4aa
=151
4ee
4bb-
4aa
=152
2gg
4ff
=153
2gg
4ff
=154
2gg
4ee
=155
4gg#
8gg
8ff
8ee
8dd
=156
4cc
4r
4r
=157
2.ee
=158
2.ee
=159
2.ee-
=160
12f
12b
12dd
12ff
12bb
12ddd
12fff
12bbb
12dddd
=161
*M4/4
4ffff
4r
2r
=162
*M3/4
2.r
=163
2.dd
=164
2.dd
=165
2.cc#
=166
12e-
12a
12cc
12ee-
12aa
12ccc
12eee-
12aaa
12cccc
=167
*M4/4
4eeee-
4r
2r
=168
*M3/4
2.r
=169
2.ee-
=170
2.ee-
=171
2.r
=172
2.gg#
=173
2.gg#
=174
12cc#
12ee-
12ff
12ee-
12ff
12ff#
12ee#
12ff#
12gg#
=175
12ff#
12gg#
12bb-
12gg#
12bb-
12ccc
12ccc#
12eee-
12fff
=176
12fff#
12fff
12eee-
12fff
12eee-
12ccc#
12eee-
12ccc#
12bb#
=177
12ccc#
12ccc
12bb-
12ccc
12bb-
12gg#
12ff#
12ff
12ee-
=178
12cc#
12dd#
12ee
12dd#
12ee
12ff#
12ee
12ff#
12gg#
=179
12ff#
12gg#
12aa
12gg#
12bb-
12ccc
12ccc#
12ddd#
12eee
=180
12fff#
12eee
12ddd#
12eee
12ddd#
12ccc#
12eee-
12ccc#
12bb#
=181
12ccc#
12bb
12aa
12bb
12aa
12gg#
12ff#
12ee
12dd#
=182
12cc#
12dd#
12ee
12dd#
12ee
12ff#
12ee
12ff#
12gg#
=183
2aa
4gg#
=184
12cc#
12dd#
12ee
12dd#
12ee
12ff#
12ee
12ff#
12gg#
=185
2aa
4gg#
=186
12ee
12ff#
12gg
12ff#
12gg
12aa
12gg
12aa
12bb
=187
2ccc
4bb
=188
2ddd
4ccc#
=189
12ff#
12gg#
12aa
12gg#
12aa
12bb
4ccc#
=190
4fff#
4r
12ff#
12bb
12ff#
=191
12eee
12ff#
12gg#
12ff#
12gg#
12aa
4bb
=192
4eee
4r
12ee
12aa
12ee
=193
12ddd
12ee
12ff#
12ee
12ff#
12gg
4ddd[
=194
4ddd]
4r
12aa
12ddd
12aa
=195
12gg#
12aa
12bb
12aa
12bb
12ccc
4ddd[
=196
4ddd]
4r
12aa
12ddd
12aa
=197
12gg#
12aa
12bb
12aa
12bb
12ccc
4ddd[
=198
4ddd]
4r
12g#
12a
12b
=199
12a
12b
12cc
12b
12cc
12dd
4ee
=200
12a
12b
12cc
12b
12cc
12dd
4ee
=201
12a
12b
12cc
12b
12cc
12dd
12cc
12dd
12ee
=202
12ff
12gg
12aa
12gg
12ff
12ee
12dd
12cc
12b
=203
12a
12b
12cc
12b
12a
12g
12f
12e
12d#
=204
4e
4r
12B
12c#
12d#
=205
12e
12f#
12g
4a
12B
12c#
12d#
=206
12e
12f#
12g
4a
12B
12c#
12d#
=207
12e
12f#
12g#
12f#
12g#
12a
12g#
12a
12b
=208
12a
12b
12cc
12b
12cc
12dd
12cc
12dd
12ee
=209
12f
12b-
12dd
12ff
12bb-
12ddd
12fff
12bbb-
12dddd
=210
4ffff
4ee
4ee
=211
4a
4r
12e
12f#
12g#
=212
12a
12b
12cc
4dd
12e
12f#
12g#
=213
12a
12b
12cc
4dd
12e
12f#
12g#
=214
12a
12b
12cc
12b
12cc
12dd
12cc
12dd
12ee
=215
12f
12b-
12dd
12ff
12bb-
12ddd
12fff
12bbb-
12dddd
=216
4ffff
4ee
4ee
=217
12f
12b-
12dd
12ff
12bb-
12ddd
12fff
12bbb-
12dddd
=218
4ffff
4ff
4ff
=219
4ggg
4gg
4gg
=220
4aaa
4aa
4aa
=221
8b-
8b-
8cc#
8cc#
8ee
8ee
=222
8gg
8gg
8bb-
8bb-
8ccc#
8ccc#
=223
4ddd
4r
4r
=224
4fff
4r
4r
=225
4ee
4r
4r
=226
4ee
4r
4r
=227
2cc#[
8cc#]
16dd
16cc#
=228
4b
4dd
4ff
=229
2ee
4cc#
=230
2ee
4dd
=231
2cc#[
8cc#]
16dd
16cc#
=232
4b
4dd
4ff
=233
2ee
4cc#
=234
2ee
4dd
=235
2ff
4dd
=236
2ff#
4dd
=237
4cc#
4bb-
4aa
=238
2gg
4ff#
=239
4cc#
4gg
4ff#
=240
2ee
4dd
=241
2ee
4dd
=242
2ee
4cc#
=243
4ff
8ee
8dd
8cc#
8b
=244
4.a
8b
8cc#
8dd
=245
4cc#
4bb-
4aa
=246
2gg
4ff#
=247
4cc#
4gg
4ff#
=248
2ee
4dd
=249
2ee
4dd
=250
2ee
4cc#
=251
4ff
8ee
8dd
8cc#
8b
=252
2.a
=253
8a
16b
16cc
16dd
16ee
16ff#
16gg#
16aa
16bb
16ccc
16ddd
=254
8eee
8ddd#
8eee
8ddd#
4eee
=255
8g
16a
16b
16cc
16dd
16ee
16ff#
16gg
16aa
16bb
16ccc#
=256
8ddd
8ccc#
8ddd
8ccc#
4ddd
=257
16r
16ff
16aa
16ccc
16fff
16aaa
16cccc
16ffff
4eeee
=258
16dd
16ff
16bb-
16ddd
16ff
16gg#
16ddd
16fff
16ee
16aa
16ccc
16eee
=259
16dd
16ff
16bb
16ddd
16cc
16ee
16aa
16ccc
16b
16ee
16gg#
16bb
=260
12a
12b
12cc
12b
12cc
12dd
4ee
=261
12a
12b
12cc
12b
12cc
12dd
4ee
=262
12aa
12bb
12ccc
12bb
12ccc
12ddd
4eee
=263
12aa
12bb
12ccc
12bb
12ccc
12ddd
4eee
=264
4ccc
4r
4bb
=265
4ccc
4r
4bb
=266
4ccc
4r
4bb
=267
4aa
4r
4r
=268
4a
4a
4a
=269
2.a
==
*-
